X: 4160
T: Blue Jigg
R: jig
M: 6/8
K: Gmajor
dB|:"G" GBd ede|"G"ged ede|"G" GBd ede|"G"BGG GBd|
"C"ceg aga|"C"age gec|"G"GBd ede|"G"dBG GBd|
"D"dad ada|"C"cgc gcg|"G"GBd ged|"G"BGG GBd:|
"G"edB ede|"G"ege ede|"G"edB ede|"G"edB GBd|
"C"gec geg|"C" gec Ace|"G"edB ede|"G" edB GBd|
"D"bgd dfd|"C"aec cec|"G" ged BAG|1 "G"BGG GBd:|2 "G"BGG G3||

